X: 175
T: Wan yangjiao cong
L: 1/8
M: 3/4
K: C
G2A,2 [I:setbarnb 1]| 
CC2A, | 
AA2E/ G/ | 
D4 | 
B, A,/ G,/D2 | 
G E/ G/D2 | 
A,2A,2 | 
D B, A, A,z2 | 
[M:2/4]C C/ E/D2 | 
B, A,/ G,/D2 | 
A, D D B,/ A,/ | 
G,4 |]

@@@ Tune index: 9049
